X:1
T:Title
%%score [ 1 2 3 4 ]
L:1/8
Q:1/4=120
M:4/4
K:G
V:1 treble nm="S."
V:2 treble nm="A."
V:3 treble-8 nm="T."
V:4 bass nm="B."
V:1
"^Shakespeare""^Hamlet II ii"!f! G2 G>G A2 F2 |"^Doubt thou the stars are fire" G2 z2 z4 | %2
w: Doubt thou the stars are|fire,|
"^cresc."!p! A2 G>G c3"^Richard John Samuel Stevens""^(1757-1837)" B |[M:4/4]{B} A2 z2 z2!f! d2 | %4
w: doubt thou the sun doth|move, doubt|
 d3 B c2 d2 | ee z2 z2!p! e2 | (dB) (AG) A2 B2 | c4!f! e4 | (ed) (3dcB (B2 A>)A | %9
w: truth to be a|li- ar, but|ne * ver * doubt I|love, but|ne * ver * * doubt * I|
 G3!pp! G G2 (dc) | (c4 B4) ::!f! B2 B>^d e2 B2 | c2 z2 z4 |"^cresc."!p! A2 G>G c3 B | %14
w: love, ne'er doubt I *|love. *|Doubt thou the stars are|fire,|doubt thou the sun doth|
{B} A2 z2 z2!f! d2 | d3 B c2 d2 | ee z2 z2!p! e2 | (ed) (3dcB A2 B2 |!>(! c4!f! e4!>)! | %19
w: move, doubt|truth to be a|li- ar, but|ne * ver * * doubt I|love, but|
 (d>B)(e>c) (B2 A>)A | G3!pp! G G2 (dc) | (c4 B4) :| %22
w: ne * ver * doubt * I|love, ne'er doubt I *|love. *|
V:2
!f! D2 E>E E2 D2 | D2 D2!p!{D} C2 B,2 |"^cresc." E2 D>D (EF) G2 |[M:4/4]{G} F2 F2{F} E2!f! F2 | %4
w: Doubt thou the stars are|fire, O doubt thou,|doubt thou the sun * doth|move, O doubt, doubt|
 G3 G G2 G2 | GG!p! G2 F2 G2 | G2 G2 G2 G2 | G4!f! A4 | (GB) (3BAG (G2 F>)F | G2!pp! D2 E2 F2 | %10
w: truth to be a|li- ar, O doubt, but|ne- ver doubt I|love, but|ne * ver * * doubt * I|love, ne'er doubt I|
 G8 ::!f! G2 G>A G2 E2 | A2 z2 z4 |"^cresc."!p! F2 D>D (EF) G2 |{G} F2!p! F2{F} E2!f! F2 | %15
w: love.|Doubt thou the stars are|fire,|doubt thou the sun * doth|move, O doubt, doubt|
 G3 G G2 G2 | GG!p! G2 F2 G2 | G2 G2 G2 G2 |!>(! G4!f! A4!>)! | B2 G2 (G2 F>)F | G2!pp! D2 E2 F2 | %21
w: truth to be a|li- ar, O doubt, but|ne- ver doubt I|love, but|ne- ver doubt * I|love, ne'er doubt I|
 G8 :| %22
w: love.|
V:3
!f! B2 B>B c2 A2 | B2 B2!p!{B} A2 G2 |"^cresc." c2 d>d c2 d2 | %3
w: Doubt thou the stars are|fire, O doubt thou,|doubt thou the sun doth|
[M:4/4][K:treble-8] d2 A2{A} G2!f! A2 | B3 d c2 B2 | cc!p! e2 d2 c2 | (Bc) d2 e2 d2 | c4!f! c4 | %8
w: move, O doubt, doubt|truth to be a|li- ar, O doubt, but|ne * ver doubt I|love, but|
 (Bd) e2 d3 d | B2!pp! B2 c2 A2 | G8 ::!f! d2 d>B B2 e2 | e2!p! e2{e} d2 c2 | %13
w: ne * ver doubt I|love, ne'er doubt I|love.|Doubt thou the stars are|fire, O doubt thou,|
"^cresc." d2 d>d c2 d2 | d2!p! A2{A} G2!f! A2 | B3 d c2 B2 | cc!p! e2 d2 c2 | (Bd) d2 e2 d2 | %18
w: doubt thou the sun doth|move, O doubt, doubt|truth to be a|li- ar, O doubt, but|ne * ver doubt I|
!>(! c4!f! c4!>)! | d2 e2 d2 d2 | B2!pp! B2 c2 A2 | G8 :| %22
w: love, but|ne- ver doubt I|love, ne'er doubt I|love.|
V:4
!f! G,2 E,>E, C,2 D,2 | G,2 z2 z4 |"^cresc."!p! C2 B,>B, A,2 G,2 |[M:4/4] D,2 z2 z2!f! D,2 | %4
w: Doubt thou the stars are|fire,|doubt thou the sun doth|move, doubt|
 G,3 =F, E,2 D,2 | C,C, z2 z2!p! C,2 | G,2 B,,2 C,2 D,2 | %7
w: truth to be a|li- ar, but|ne- ver doubt I|
"^This edition  Andrew Sims 2002" E,4!f! F,4 | G,2 C,2 D,2 D,2 |!pp!!>(! G,8- | G,8!>)! :: %11
w: love, but|ne- ver doubt I|love.||
!f! G,2 G,>F, E,2 ^G,2 | A,2!p! C2{C} B,2 A,2 |"^cresc." C2 B,>B, A,2 G,2 | D,2 z2 z2!f! D,2 | %15
w: Doubt thou the stars are|fire, O doubt thou,|doubt thou the sun doth|move, doubt|
 G,3 =F, E,2 D,2 | C,C, z2 z2!p! C,2 | G,2 B,,2 C,2 D,2 |!>(! E,4!f! F,4!>)! | G,2 C,2 D,2 D,2 | %20
w: truth to be a|li- ar, but|ne- ver doubt I|love, but|ne- ver doubt I|
!pp!!>(! G,8- | G,8!>)! :| %22
w: love.||

